X: 2848
T: Bard's Whim, The
R: jig
M: 6/8
K: Gmajor
|:d|B2 A G2 A|B2 d dec|B2 A G2 A|B2 e e2 d|
B2 A G2 A|B2 d dec|B2 e efg|B2 e e2:|
|:d|B2 g gab|B2 d dec|B2 g gfg|B2 e e2 d|
B2 g gab|B2 d dec|B2 A G2 A|B2 e e2:|

